X: 98
T:Bob of Fettercairn
B:Scots Guards - Standard Settings
Z:https://nigelgatherer.com/
M:4/4
L:1/8
K:D
B | 
d>B   G>B d>B G>B   | d>B d>g   f2  d>f    |\
e>c   A>c a>c A>c   | e2  e>f   g>a g/f/e  |
d>B   G>B d>B G>B   | d>B d>e   f2  e/f/g  |\
a/g/f g>f e>d e/f/g | B<A B/c/d e2  e<g   ||
d>g   B>g d>g B>g   | d>B d>g   f2  d>f    |\
e>a   c<a e>a c<a   | e2  e>f   g>a g/f/e  |
e>a   c<a e>a c<a   | d<B d>e   f2  e/f/g  |\
a/g/f g>f e>d e/f/g | B<A B/c/d e2  e<g   ||
d/B/B d<G B>A G>B   | d<B d>e   g2  e<a    |\
A2    e>A c>B A>c   | e2  e>f   g>a g/f/e  |
d/B/B d<G B>A G>B   | d<B d>e   f2  e/f/g  |\
a/g/f g>f e>d e/f/g | B<A B/c/d e2  e<g   ||
B<G   d<G B<G G/G/G | B<G d<G   f2  d<a    |\
A2    e>A c<A A/A/A | e>A c<A   g>a g>d    |
B<G   d<G B<G G/G/G | B<G d<G   f2  e/f/g  |\
a/g/f g>f e>d e/f/g | B<A B/c/d e2  e<g   |]

